public/svgs/thin/caravan.svg

<svg xmlns="http://www.w3.org/2000/svg" viewBox="0 0 640 512"><!-- Font Awesome Pro 6.0.0-alpha2 by @fontawesome - https://fontawesome.com License - https://fontawesome.com/license (Commercial License) --><path d="M416 128H352C334.326 128 320 142.326 320 160V320C320 337.674 334.326 352 352 352H416C433.674 352 448 337.674 448 320V160C448 142.326 433.674 128 416 128ZM432 224H392C387.578 224 384 227.578 384 232S387.578 240 392 240H432V320C432 328.822 424.822 336 416 336H352C343.178 336 336 328.822 336 320V160C336 151.178 343.178 144 352 144H416C424.822 144 432 151.178 432 160V224ZM632 400H571.096C573.932 395.223 576 389.957 576 384V192C576 103.635 504.365 32 416 32H64C28.654 32 0 60.654 0 96V352C0 387.346 28.654 416 64 416H96C96 469.02 138.98 512 192 512S288 469.02 288 416H632C636.422 416 640 412.422 640 408S636.422 400 632 400ZM192 496C147.889 496 112 460.111 112 416S147.889 336 192 336S272 371.889 272 416S236.111 496 192 496ZM560 384C560 392.822 552.822 400 544 400H286.387C278.734 354.637 239.539 320 192 320S105.266 354.637 97.613 400H64C37.533 400 16 378.467 16 352V96C16 69.533 37.533 48 64 48H416C495.402 48 560 112.598 560 192V384ZM224 128H96C78.326 128 64 142.326 64 160V224C64 241.674 78.326 256 96 256H224C241.674 256 256 241.674 256 224V160C256 142.326 241.674 128 224 128ZM240 224C240 232.822 232.822 240 224 240H96C87.178 240 80 232.822 80 224V160C80 151.178 87.178 144 96 144H224C232.822 144 240 151.178 240 160V224Z"/></svg>

<svg xmlns="http://www.w3.org/2000/svg" viewBox="0 0 640 512"><!--! Font Awesome Pro 6.5.1 by @fontawesome - https://fontawesome.com License - https://fontawesome.com/license (Commercial License) Copyright 2023 Fonticons, Inc. --><path d="M416 48c79.5 0 144 64.5 144 144V400H288h-1.3l0 0c-7.6-45.4-47.1-80-94.7-80s-87.1 34.6-94.7 80H80c-35.3 0-64-28.7-64-64V112c0-35.3 28.7-64 64-64H416zM80 416H96c0 53 43 96 96 96s96-43 96-96H560h16l56 0c4.4 0 8-3.6 8-8s-3.6-8-8-8l-56 0V192c0-88.4-71.6-160-160-160H80C35.8 32 0 67.8 0 112V336c0 44.2 35.8 80 80 80zM96 144H224c8.8 0 16 7.2 16 16v64c0 8.8-7.2 16-16 16H96c-8.8 0-16-7.2-16-16V160c0-8.8 7.2-16 16-16zM64 160v64c0 17.7 14.3 32 32 32H224c17.7 0 32-14.3 32-32V160c0-17.7-14.3-32-32-32H96c-17.7 0-32 14.3-32 32zm352-16c8.8 0 16 7.2 16 16v64H392c-4.4 0-8 3.6-8 8s3.6 8 8 8h40v80c0 8.8-7.2 16-16 16H352c-8.8 0-16-7.2-16-16V160c0-8.8 7.2-16 16-16h64zm32 88V160c0-17.7-14.3-32-32-32H352c-17.7 0-32 14.3-32 32V320c0 17.7 14.3 32 32 32h64c17.7 0 32-14.3 32-32V232zM192 336a80 80 0 1 1 0 160 80 80 0 1 1 0-160z"/></svg>
